X: 5856
T: Calliope House
R: jig
M: 6/8
K: Dmajor
ABc|:dAA fAA|eAA fed|Bee ~e2e|fed B/c/dB|ABA A2F|
ABc d2e|1 ~f3 fed|~e3 ABc:|2 ~f3 edc|~d3 efg||
|:a2a faa|eaa def|~g3 fgf|ede fdB|ABA A2F|
ABc d2e|1 ~f3 fed|~e3 efg:|2 ~f3 edc|~d3 ABc||

